src/icons/partners-ahalar.svg

<svg width="300" height="87" viewBox="0 0 300 87" fill="none" xmlns="http://www.w3.org/2000/svg">
<path d="M68.5751 75.6875H18.5364C14.4195 75.6875 11.0508 72.3672 11.0508 68.3095V18.9907C11.0508 14.9326 14.4195 11.6127 18.5364 11.6127H68.5751C72.692 11.6127 76.0607 14.9326 76.0607 18.9907V68.3095C76.0607 72.3672 72.692 75.6875 68.5751 75.6875Z" fill="currentColor"/>
<path d="M118.039 32.0162L113.834 20.5283C113.286 19.0422 112.6 16.3842 112.6 16.3842H112.508C112.508 16.3842 111.823 19.0422 111.274 20.5283L107.024 32.0162H118.039ZM110.863 13.1402H114.246L126.038 44.8105H122.701L118.999 34.719H106.064L102.407 44.8105H99.0703L110.863 13.1402Z" fill="currentColor"/>
<path d="M142.677 28.2774L133.306 13.1402H137.008L142.631 22.511C143.59 24.1326 144.687 26.0701 144.687 26.0701H144.779C144.779 26.0701 145.784 24.1326 146.789 22.511L152.458 13.1402H156.159L146.744 28.2774L157.028 44.8105H153.417L146.699 33.8633C145.738 32.1968 144.687 30.3946 144.687 30.3946H144.596C144.596 30.3946 143.635 32.2416 142.631 33.908L136.048 44.8105H132.438L142.677 28.2774Z" fill="currentColor"/>
<path d="M182.394 32.0162L178.189 20.5283C177.64 19.0422 176.954 16.3842 176.954 16.3842H176.863C176.863 16.3842 176.178 19.0422 175.629 20.5283L171.379 32.0162H182.394ZM175.218 13.1402H178.6L190.393 44.8105H187.056L183.354 34.719H170.419L166.762 44.8105H163.426L175.218 13.1402Z" fill="currentColor"/>
<path d="M204.063 19.5368V13.1393H221.706V44.8096H218.506V15.9325H207.125V19.5819C207.125 34.5832 205.206 44.4948 196.43 45.1699V42.2418C202.463 41.4311 204.063 33.0066 204.063 19.5368Z" fill="currentColor"/>
<path d="M250.777 32.0162L246.572 20.5283C246.024 19.0422 245.337 16.3842 245.337 16.3842H245.247C245.247 16.3842 244.562 19.0422 244.012 20.5283L239.762 32.0162H250.777ZM243.601 13.1402H246.984L258.776 44.8105H255.439L251.738 34.719H238.802L235.145 44.8105H231.809L243.601 13.1402Z" fill="currentColor"/>
<path d="M279.619 29.5839C283.915 29.5839 286.703 27.0157 286.703 22.6912C286.703 18.4109 283.915 15.9334 279.664 15.9334H272.076V29.5839H279.619ZM268.922 13.1402H280.029C285.744 13.1402 289.948 16.8343 289.948 22.6912C289.948 28.5926 285.744 32.3772 280.029 32.3772H272.076V44.8105H268.922V13.1402Z" fill="currentColor"/>
<path d="M76.0742 37.0317V43.2773" stroke="white" stroke-linecap="round" stroke-linejoin="round"/>
<path d="M52.6407 30.7849V37.0305H18.875V55.7676H58.9778V30.7849H52.6407Z" fill="#004737"/>
<path d="M52.6433 43.2777H25.2148V49.5234H52.6433V43.2777Z" fill="currentColor"/>
<path d="M18.875 30.7852H52.6407V24.5395H18.875V30.7852Z" fill="#004737"/>
<path d="M76.0742 37.0317V43.2773" stroke="white" stroke-linecap="round" stroke-linejoin="round"/>
<path d="M76.0777 37.0313H68.3528V30.7856H62.0156V68.2598H68.3528V43.277H76.0777" fill="#004737"/>
<path d="M98.5664 56.0731H99.812V61.7748H102.777V56.0731H104.023V61.7748H104.834V64.1641H103.723V62.8312H98.5664V56.0731Z" fill="currentColor"/>
<path d="M106.973 56.074H111.077V57.1306H108.218V58.9008H110.526V59.9574H108.218V61.7756H111.231V62.832H106.973V56.074Z" fill="currentColor"/>
<path d="M113.43 56.074H114.675V58.939H117.814V56.074H119.05V62.832H117.814V59.9954H114.675V62.832H113.43V56.074Z" fill="currentColor"/>
<path d="M123.226 57.1306H120.977V56.074H126.713V57.1306H124.463V62.832H123.226V57.1306Z" fill="currentColor"/>
<path d="M131.063 59.4342C131.787 59.4342 132.212 58.977 132.212 58.2727C132.212 57.578 131.787 57.1306 131.081 57.1306H129.894V59.4342H131.063ZM128.648 56.074H131.294C132.579 56.074 133.477 56.9595 133.477 58.2727C133.477 59.5863 132.579 60.5 131.294 60.5H129.894V62.832H128.648V56.074Z" fill="currentColor"/>
<path d="M138.898 56.074H142.839V57.1306H140.144V62.832H138.898V56.074Z" fill="currentColor"/>
<path d="M145.114 61.5555C145.287 61.6887 145.567 61.8887 145.887 61.8887C146.233 61.8887 146.427 61.6697 146.571 61.2986L143.887 56.0727H145.259L146.717 59.0903C146.939 59.5377 147.102 59.985 147.102 59.985H147.123C147.123 59.985 147.248 59.5377 147.402 59.0994L148.503 56.0727H149.807L147.692 61.4124C147.402 62.136 146.929 62.9453 145.934 62.9453C145.413 62.9453 144.978 62.7644 144.564 62.479L145.114 61.5555Z" fill="currentColor"/>
<path d="M151.822 56.074H153.145L154.497 59.4152C154.652 59.8148 154.836 60.4048 154.836 60.4048H154.854C154.854 60.4048 155.037 59.8148 155.192 59.4152L156.544 56.074H157.867L158.428 62.832H157.181L156.902 59.0532C156.863 58.6059 156.892 58.006 156.892 58.006H156.872C156.872 58.006 156.651 58.6631 156.496 59.0532L155.386 61.6709H154.304L153.193 59.0532C153.039 58.6631 152.817 57.9969 152.817 57.9969H152.797C152.797 57.9969 152.826 58.6059 152.787 59.0532L152.507 62.832H151.262L151.822 56.074Z" fill="currentColor"/>
<path d="M163.985 60.1001L163.377 58.2917C163.26 57.9111 163.105 57.2449 163.105 57.2449H163.087C163.087 57.2449 162.932 57.9111 162.816 58.2917L162.198 60.1001H163.985ZM162.439 56.074H163.753L166.157 62.832H164.884L164.294 61.0999H161.889L161.31 62.832H160.035L162.439 56.074Z" fill="currentColor"/>
<path d="M168.027 56.074H169.273V58.939H172.412V56.074H173.649V62.832H172.412V59.9954H169.273V62.832H168.027V56.074Z" fill="currentColor"/>
<path d="M176.27 56.074H177.515V62.832H176.27V56.074Z" fill="currentColor"/>
<path d="M183.266 55.9588C184.165 55.9588 185.13 56.2442 185.796 56.882L185.198 57.7957C184.715 57.3863 183.991 57.0819 183.324 57.0819C181.818 57.0819 181.026 58.1573 181.026 59.4041C181.026 60.6703 181.847 61.8219 183.335 61.8219C184.069 61.8219 184.802 61.4698 185.323 60.9651L185.98 61.8507C185.392 62.4407 184.512 62.9453 183.286 62.9453C181.132 62.9453 179.742 61.4124 179.742 59.4231C179.742 57.4625 181.2 55.9588 183.266 55.9588Z" fill="currentColor"/>
<path d="M189.567 57.1306H187.316V56.074H193.053V57.1306H190.803V62.832H189.567V57.1306Z" fill="currentColor"/>
<path d="M194.992 56.074H196.238V59.9764C196.238 60.3763 196.171 61.0236 196.171 61.0236H196.189C196.189 61.0236 196.518 60.3668 196.769 59.9673L199.357 56.074H200.593V62.832H199.357V58.939C199.357 58.5395 199.425 57.8922 199.425 57.8922H199.405C199.405 57.8922 199.087 58.5395 198.835 58.939L196.228 62.832H194.992V56.074Z" fill="currentColor"/>
<path d="M202.836 58.2917V56.074H204.1V58.0158C204.1 58.7869 204.439 59.2054 205.25 59.2054C205.849 59.2054 206.39 58.977 206.661 58.8059V56.074H207.925V62.832H206.661V60.2147C206.661 60.0815 206.679 59.9005 206.679 59.9005H206.661C206.322 60.0717 205.646 60.319 204.932 60.319C203.502 60.319 202.836 59.5579 202.836 58.2917Z" fill="currentColor"/>
<path d="M210.559 56.074H211.804V58.939H214.944V56.074H216.18V62.832H214.944V59.9954H211.804V62.832H210.559V56.074Z" fill="currentColor"/>
<path d="M218.801 56.074H220.046V59.9764C220.046 60.3763 219.979 61.0236 219.979 61.0236H219.998C219.998 61.0236 220.326 60.3668 220.577 59.9673L223.166 56.074H224.402V62.832H223.166V58.939C223.166 58.5395 223.234 57.8922 223.234 57.8922H223.213C223.213 57.8922 222.896 58.5395 222.644 58.939L220.037 62.832H218.801V56.074Z" fill="currentColor"/>
<path d="M228.453 59.4054L226.406 56.074H227.825L228.772 57.7305C228.985 58.1205 229.197 58.5486 229.197 58.5486H229.216C229.216 58.5486 229.409 58.1297 229.641 57.7305L230.597 56.074H232.016L229.959 59.4054L232.094 62.832H230.703L229.631 61.0138C229.409 60.6237 229.207 60.2147 229.207 60.2147H229.186C229.186 60.2147 228.994 60.6237 228.772 61.0138L227.71 62.832H226.328L228.453 59.4054Z" fill="currentColor"/>
<path d="M100.121 70.1459H97.8711V69.0896H103.608V70.1459H101.358V75.8477H100.121V70.1459Z" fill="currentColor"/>
<path d="M105.543 69.0896H109.648V70.1459H106.789V71.9164H109.097V72.9731H106.789V74.7913H109.802V75.8477H105.543V69.0896Z" fill="currentColor"/>
<path d="M113.422 72.421L111.374 69.0896H112.793L113.74 70.7458C113.952 71.1362 114.166 71.5642 114.166 71.5642H114.184C114.184 71.5642 114.378 71.1453 114.608 70.7458L115.565 69.0896H116.985L114.928 72.421L117.063 75.8477H115.671L114.6 74.0294C114.378 73.6394 114.174 73.23 114.174 73.23H114.155C114.155 73.23 113.962 73.6394 113.74 74.0294L112.678 75.8477H111.297L113.422 72.421Z" fill="currentColor"/>
<path d="M118.969 69.0896H120.214V71.9547H123.353V69.0896H124.589V75.8477H123.353V73.011H120.214V75.8477H118.969V69.0896Z" fill="currentColor"/>
<path d="M130.349 74.8394C131.605 74.8394 132.609 73.7925 132.609 72.4217C132.609 71.1084 131.605 70.0992 130.349 70.0992C129.093 70.0992 128.089 71.1084 128.089 72.4217C128.089 73.7925 129.093 74.8394 130.349 74.8394ZM130.349 68.9763C132.367 68.9763 133.893 70.4896 133.893 72.4217C133.893 74.411 132.367 75.9629 130.349 75.9629C128.33 75.9629 126.805 74.411 126.805 72.4217C126.805 70.4896 128.33 68.9763 130.349 68.9763Z" fill="currentColor"/>
<path d="M136.697 70.9362V69.0895H140.937V75.8476H139.691V70.1458H137.885V70.9551C137.885 74.2293 137.122 75.8571 135.219 75.9238V74.8004C136.234 74.6675 136.697 73.5535 136.697 70.9362Z" fill="currentColor"/>
<path d="M146.697 74.8394C147.952 74.8394 148.957 73.7925 148.957 72.4217C148.957 71.1084 147.952 70.0992 146.697 70.0992C145.442 70.0992 144.437 71.1084 144.437 72.4217C144.437 73.7925 145.442 74.8394 146.697 74.8394ZM146.697 68.9763C148.715 68.9763 150.241 70.4896 150.241 72.4217C150.241 74.411 148.715 75.9629 146.697 75.9629C144.679 75.9629 143.152 74.411 143.152 72.4217C143.152 70.4896 144.679 68.9763 146.697 68.9763Z" fill="currentColor"/>
<path d="M152.457 69.0896H156.398V70.1459H153.703V75.8477H152.457V69.0896Z" fill="currentColor"/>
<path d="M158.309 69.0896H159.554V75.8477H158.309V69.0896Z" fill="currentColor"/>
<path d="M163.451 67.4712V67.3476H164.388V67.4712C164.388 67.8807 164.716 68.0711 165.036 68.0711C165.353 68.0711 165.692 67.8807 165.692 67.4618V67.3476H166.618V67.4712C166.618 68.3091 165.875 68.7849 165.036 68.7849C164.194 68.7849 163.451 68.3091 163.451 67.4712ZM162.176 69.0896H163.422V72.992C163.422 73.3919 163.354 74.0393 163.354 74.0393H163.374C163.374 74.0393 163.702 73.3825 163.953 72.9826L166.541 69.0896H167.778V75.8477H166.541V71.9547C166.541 71.5551 166.61 70.9078 166.61 70.9078H166.589C166.589 70.9078 166.272 71.5551 166.02 71.9547L163.413 75.8477H162.176V69.0896Z" fill="currentColor"/>
</svg>

<svg width="300" height="87" viewBox="0 0 300 87" fill="none" xmlns="http://www.w3.org/2000/svg"><path d="M68.575 75.688H18.536c-4.117 0-7.485-3.32-7.485-7.379V18.992c0-4.058 3.368-7.378 7.485-7.378h50.04c4.116 0 7.485 3.32 7.485 7.378V68.31c0 4.057-3.369 7.377-7.486 7.377Z" fill="currentColor"/><path d="m118.039 32.016-4.205-11.488c-.548-1.486-1.234-4.144-1.234-4.144h-.092s-.685 2.658-1.234 4.144l-4.25 11.488h11.015Zm-7.176-18.876h3.383l11.792 31.67h-3.337l-3.702-10.091h-12.935l-3.657 10.091H99.07l11.793-31.67ZM142.677 28.277l-9.371-15.137h3.702l5.623 9.371c.959 1.622 2.056 3.56 2.056 3.56h.092s1.005-1.938 2.01-3.56l5.669-9.37h3.701l-9.415 15.136 10.284 16.533h-3.611l-6.718-10.947c-.961-1.666-2.012-3.468-2.012-3.468h-.091s-.961 1.847-1.965 3.513l-6.583 10.902h-3.61l10.239-16.533ZM182.394 32.016l-4.205-11.488c-.549-1.486-1.235-4.144-1.235-4.144h-.091s-.685 2.658-1.234 4.144l-4.25 11.488h11.015Zm-7.176-18.876h3.382l11.793 31.67h-3.337l-3.702-10.091h-12.935l-3.657 10.091h-3.336l11.792-31.67ZM204.063 19.537v-6.398h17.643v31.67h-3.2V15.933h-11.381v3.65c0 15.001-1.919 24.913-10.695 25.588v-2.928c6.033-.81 7.633-9.235 7.633-22.705ZM250.777 32.016l-4.205-11.488c-.548-1.486-1.235-4.144-1.235-4.144h-.09s-.685 2.658-1.235 4.144l-4.25 11.488h11.015Zm-7.176-18.876h3.383l11.792 31.67h-3.337l-3.701-10.091h-12.936l-3.657 10.091h-3.336l11.792-31.67ZM279.619 29.584c4.296 0 7.084-2.568 7.084-6.893 0-4.28-2.788-6.758-7.039-6.758h-7.588v13.65h7.543ZM268.922 13.14h11.107c5.715 0 9.919 3.694 9.919 9.551 0 5.902-4.204 9.686-9.919 9.686h-7.953V44.81h-3.154V13.14Z" fill="currentColor"/><path d="M76.074 37.032v6.245" stroke="#004737" stroke-linecap="round" stroke-linejoin="round"/><path d="M52.64 30.785v6.246H18.876v18.737h40.103V30.785H52.64Z" fill="#004737"/><path d="M52.643 43.278H25.215v6.245h27.428v-6.245Z" fill="currentColor"/><path d="M18.875 30.785h33.766V24.54H18.875v6.245Z" fill="#004737"/><path d="M76.074 37.032v6.245" stroke="#004737" stroke-linecap="round" stroke-linejoin="round"/><path d="M76.078 37.031h-7.725v-6.245h-6.337V68.26h6.337V43.277h7.725" fill="#004737"/><path d="M98.566 56.073h1.246v5.702h2.965v-5.702h1.246v5.702h.811v2.39h-1.111V62.83h-5.157v-6.758ZM106.973 56.074h4.104v1.057h-2.859v1.77h2.308v1.056h-2.308v1.819h3.013v1.056h-4.258v-6.758ZM113.43 56.074h1.245v2.865h3.139v-2.865h1.236v6.758h-1.236v-2.837h-3.139v2.837h-1.245v-6.758ZM123.226 57.13h-2.249v-1.056h5.736v1.057h-2.25v5.701h-1.237v-5.701ZM131.063 59.434c.724 0 1.149-.457 1.149-1.161 0-.695-.425-1.142-1.131-1.142h-1.187v2.303h1.169Zm-2.415-3.36h2.646c1.285 0 2.183.886 2.183 2.199 0 1.313-.898 2.227-2.183 2.227h-1.4v2.332h-1.246v-6.758ZM138.898 56.074h3.941v1.057h-2.695v5.701h-1.246v-6.758ZM145.114 61.556c.173.133.453.333.773.333.346 0 .54-.22.684-.59l-2.684-5.226h1.372l1.458 3.017c.222.448.385.895.385.895h.021s.125-.447.279-.886l1.101-3.026h1.304l-2.115 5.34c-.29.723-.763 1.532-1.758 1.532-.521 0-.956-.18-1.37-.466l.55-.923ZM151.822 56.074h1.323l1.352 3.341c.155.4.339.99.339.99h.018s.183-.59.338-.99l1.352-3.341h1.323l.561 6.758h-1.247l-.279-3.779c-.039-.447-.01-1.047-.01-1.047h-.02s-.221.657-.376 1.047l-1.11 2.618h-1.082l-1.111-2.618c-.154-.39-.376-1.056-.376-1.056h-.02s.029.609-.01 1.056l-.28 3.779h-1.245l.56-6.758ZM163.985 60.1l-.608-1.808c-.117-.38-.272-1.047-.272-1.047h-.018s-.155.666-.271 1.047l-.618 1.808h1.787Zm-1.546-4.026h1.314l2.404 6.758h-1.273l-.59-1.732h-2.405l-.579 1.732h-1.275l2.404-6.758ZM168.027 56.074h1.246v2.865h3.139v-2.865h1.237v6.758h-1.237v-2.837h-3.139v2.837h-1.246v-6.758ZM176.27 56.074h1.245v6.758h-1.245v-6.758ZM183.266 55.959c.899 0 1.864.285 2.53.923l-.598.914c-.483-.41-1.207-.714-1.874-.714-1.506 0-2.298 1.075-2.298 2.322 0 1.266.821 2.418 2.309 2.418.734 0 1.467-.352 1.988-.857l.657.886c-.588.59-1.468 1.094-2.694 1.094-2.154 0-3.544-1.533-3.544-3.522 0-1.96 1.458-3.464 3.524-3.464ZM189.567 57.13h-2.251v-1.056h5.737v1.057h-2.25v5.701h-1.236v-5.701ZM194.992 56.074h1.246v3.902c0 .4-.067 1.048-.067 1.048h.018s.329-.657.58-1.057l2.588-3.893h1.236v6.758h-1.236v-3.893c0-.4.068-1.047.068-1.047h-.02s-.318.647-.57 1.047l-2.607 3.893h-1.236v-6.758ZM202.836 58.292v-2.218h1.264v1.942c0 .77.339 1.19 1.15 1.19.599 0 1.14-.229 1.411-.4v-2.732h1.264v6.758h-1.264v-2.617c0-.134.018-.315.018-.315h-.018a4.115 4.115 0 0 1-1.729.419c-1.43 0-2.096-.761-2.096-2.027ZM210.559 56.074h1.245v2.865h3.14v-2.865h1.236v6.758h-1.236v-2.837h-3.14v2.837h-1.245v-6.758ZM218.801 56.074h1.245v3.902c0 .4-.067 1.048-.067 1.048h.019s.328-.657.579-1.057l2.589-3.893h1.236v6.758h-1.236v-3.893c0-.4.068-1.047.068-1.047h-.021s-.317.647-.569 1.047l-2.607 3.893h-1.236v-6.758ZM228.453 59.405l-2.047-3.331h1.419l.947 1.657c.213.39.425.818.425.818h.019s.193-.42.425-.819l.956-1.656h1.419l-2.057 3.331 2.135 3.427h-1.391l-1.072-1.818c-.222-.39-.424-.8-.424-.8h-.021s-.192.41-.414.8l-1.062 1.818h-1.382l2.125-3.427ZM100.121 70.146h-2.25V69.09h5.737v1.056h-2.25v5.702h-1.237v-5.702ZM105.543 69.09h4.105v1.056h-2.859v1.77h2.308v1.057h-2.308v1.818h3.013v1.057h-4.259V69.09ZM113.422 72.421l-2.048-3.331h1.419l.947 1.656c.212.39.426.818.426.818h.018s.194-.419.424-.818l.957-1.656h1.42l-2.057 3.331 2.135 3.427h-1.392l-1.071-1.819c-.222-.39-.426-.799-.426-.799h-.019s-.193.41-.415.8l-1.062 1.818h-1.381l2.125-3.427ZM118.969 69.09h1.245v2.865h3.139V69.09h1.236v6.758h-1.236V73.01h-3.139v2.837h-1.245V69.09ZM130.349 74.84c1.256 0 2.26-1.047 2.26-2.418 0-1.314-1.004-2.323-2.26-2.323-1.256 0-2.26 1.01-2.26 2.323 0 1.37 1.004 2.417 2.26 2.417Zm0-5.864c2.018 0 3.544 1.514 3.544 3.446 0 1.989-1.526 3.54-3.544 3.54-2.019 0-3.544-1.551-3.544-3.54 0-1.932 1.525-3.446 3.544-3.446ZM136.697 70.936V69.09h4.24v6.759h-1.246v-5.702h-1.806v.81c0 3.273-.763 4.901-2.666 4.968V74.8c1.015-.132 1.478-1.246 1.478-3.864ZM146.697 74.84c1.255 0 2.26-1.047 2.26-2.418 0-1.314-1.005-2.323-2.26-2.323s-2.26 1.01-2.26 2.323c0 1.37 1.005 2.417 2.26 2.417Zm0-5.864c2.018 0 3.544 1.514 3.544 3.446 0 1.989-1.526 3.54-3.544 3.54s-3.545-1.551-3.545-3.54c0-1.932 1.527-3.446 3.545-3.446ZM152.457 69.09h3.941v1.056h-2.695v5.702h-1.246V69.09ZM158.309 69.09h1.245v6.758h-1.245V69.09ZM163.451 67.471v-.123h.937v.123c0 .41.328.6.648.6.317 0 .656-.19.656-.61v-.113h.926v.123c0 .838-.743 1.314-1.582 1.314-.842 0-1.585-.476-1.585-1.314Zm-1.275 1.619h1.246v3.902c0 .4-.068 1.047-.068 1.047h.02s.328-.657.579-1.056l2.588-3.893h1.237v6.758h-1.237v-3.893c0-.4.069-1.047.069-1.047h-.021s-.317.647-.569 1.047l-2.607 3.893h-1.237V69.09Z" fill="currentColor"/></svg>
